X: 38006
T: Speed The Plough
R: reel
M: 4/4
K: Cmajor
(3cec cG AGEA|GE (3EGE DECD|(3EGE GE (3FAF FA|
GAcf efed|(3cec cG AGEA|GE (3EGE DECD|
(3EGE GE FGAF|1 GAcf edcB:|2 GAcd eccd||
|:(3ege ga gece|(3faf ef dcAc|(3gag ga gecA|
GAcd ed (3dfd|(3ege ga gece|(3faf ef dcAG|
[1(3EGE GE FGAF|GAcf eccf:|2 (3EGE GE (3FAF FA|GAcf efed||

